client/resources/iconsets/breeze/src/svg/16x16/icon_busystatus_unknown.svg

<svg xmlns="http://www.w3.org/2000/svg" width="16" height="16" viewBox="0 0 16 16">
 <path style="fill:#cac8c8" 
       d="M 7.5859375 1 L 7.2929688 1.2929688 L 1.2929688 7.2929688 L 1 7.5859375 L 1 8.4140625 L 2 9.4140625 L 2.7070312 8.7070312 L 8.7070312 2.7070312 L 9.4140625 2 L 8.4140625 1 L 7.5859375 1 z M 13.292969 1.2929688 L 1.2929688 13.292969 L 2.7070312 14.707031 L 14.707031 2.7070312 L 13.292969 1.2929688 z M 14 6.5859375 L 13.292969 7.2929688 L 7.2929688 13.292969 L 6.5859375 14 L 7.5859375 15 L 8.4140625 15 L 8.7070312 14.707031 L 14.707031 8.7070312 L 15 8.4140625 L 15 7.5859375 L 14 6.5859375 z "
       />
 <path style="fill:#cac8c8" 
       d="M 2 1 C 1.446 1 1 1.446 1 2 L 1 14 C 1 14.554 1.446 15 2 15 L 14 15 C 14.554 15 15 14.554 15 14 L 15 2 C 15 1.446 14.554 1 14 1 L 2 1 z M 2 2 L 14 2 L 14 14 L 2 14 L 2 2 z "
       />
</svg>

<svg xmlns="http://www.w3.org/2000/svg" width="16" height="16" fill="#cac8c8"><path d="M7.586 1l-.293.293-6 6L1 7.586v.828l1 1 .707-.707 6-6L9.414 2l-1-1h-.828zm5.707.293l-12 12 1.414 1.414 12-12-1.414-1.414zM14 6.586l-.707.707-6 6-.707.707 1 1h.828l.293-.293 6-6L15 8.414v-.828l-1-1z"/><path d="M2 1a1 1 0 0 0-1 1v12a1 1 0 0 0 1 1h12a1 1 0 0 0 1-1V2a1 1 0 0 0-1-1H2zm0 1h12v12H2V2z"/></svg>
